PortableApps/LibreOfficePortable/App/libreoffice/help/media/icon-themes/cmd/sc_showprecedents.svg

<svg viewBox="0 0 16 16" xmlns="http://www.w3.org/2000/svg"><path d="m0 0v5h6v-.8730469l-1-1v.8730469h-4v-3h3.0878906c.0070223-.02006544.0076994-.04290859.015625-.0625.2084285-.51521667.7604192-.93737239 1.390625-.9375zm5.4941406 0c.1744213 0 .3446493.03582003.5058594.09375v-.09375zm6.5058594 5v1h3v4h-3v1h4v-6zm-3 2v2h1v-2zm-9 4v5h5.4589844c-.6149017-.016065-1.1510849-.426422-1.3554688-.931641-.0086271-.021325-.0080685-.046474-.015625-.068359h-3.0878906v-3h4v.878906l1-1v-.878906zm6 4.912109c-.1435455.05158-.2945755.081973-.4492188.087891h.4492188z" fill="#808080"/><path d="m1 1v3h4v-.8730469l-.5488281-.5488281c-.4356322-.4216084-.5409304-1.0705076-.3632813-1.578125zm11 5v1.0058594c-.000799.5244291-.40656.9591719-.929688.9960937.523879.0369753.929913.4728657.929688.9980469v1h3v-4zm-11 6v3h3.0878906c-.1750069-.506842-.0708268-1.152132.3632813-1.572266l.5488281-.548828v-.878906z" fill="#fff"/><path d="m5.4941406 1c-.4494023.000091-.6705869.54684-.3476562.859375l3.5 3.5-1.6464844 1.6464844h4v-4l-1.6464844 1.6464844-3.5-3.5c-.094207-.0973701-.2238918-.1523438-.359375-.1523438zm1.5058594 8 1.6464844 1.646484-3.5 3.5c-.3229307.312535-.1017461.859284.3476562.859375.1354832 0 .265168-.054973.359375-.152343l3.5-3.5 1.6464844 1.646484v-4z" fill="#4d82b8"/></svg>

<svg viewBox="0 0 16 16" xmlns="http://www.w3.org/2000/svg">
  <path
     style="fill:#808080"
     d="M 0 0 L 0 5 L 6 5 L 6 4.1269531 L 5 3.1269531 L 5 4 L 1 4 L 1 1 L 4.0878906 1 C 4.0949129 0.97993456 4.09559 0.95709141 4.1035156 0.9375 C 4.3119441 0.42228333 4.8639348 0.00012761111 5.4941406 0 L 0 0 z M 5.4941406 0 C 5.6685619 0 5.8387899 0.03582003 6 0.09375 L 6 0 L 5.4941406 0 z M 12 5 L 12 6 L 15 6 L 15 10 L 12 10 L 12 11 L 16 11 L 16 5 L 12 5 z M 9 7 L 9 9 L 10 9 L 10 7 L 9 7 z M 0 11 L 0 16 L 5.4589844 16 C 4.8440827 15.983935 4.3078995 15.573578 4.1035156 15.068359 C 4.0948885 15.047034 4.0954471 15.021885 4.0878906 15 L 1 15 L 1 12 L 5 12 L 5 12.878906 L 6 11.878906 L 6 11 L 0 11 z M 6 15.912109 C 5.8564545 15.963689 5.7054245 15.994082 5.5507812 16 L 6 16 L 6 15.912109 z "
     id="rect858" />
  <path
     style="fill:#ffffff"
     d="M 1 1 L 1 4 L 5 4 L 5 3.1269531 L 4.4511719 2.578125 C 4.0155397 2.1565166 3.9102415 1.5076174 4.0878906 1 L 1 1 z M 12 6 L 12 7.0058594 C 11.999201 7.5302885 11.59344 7.9650313 11.070312 8.0019531 C 11.594191 8.0389284 12.000225 8.4748188 12 9 L 12 10 L 15 10 L 15 6 L 12 6 z M 1 12 L 1 15 L 4.0878906 15 C 3.9128837 14.493158 4.0170638 13.847868 4.4511719 13.427734 L 5 12.878906 L 5 12 L 1 12 z "
     id="rect860" />
  <path
     style="fill:#4d82b8"
     d="M 5.4941406 1 C 5.0447383 1.000091 4.8235537 1.54684 5.1464844 1.859375 L 8.6464844 5.359375 L 7 7.0058594 L 11 7.0058594 L 11 3.0058594 L 9.3535156 4.6523438 L 5.8535156 1.1523438 C 5.7593086 1.0549737 5.6296238 1 5.4941406 1 z M 7 9 L 8.6464844 10.646484 L 5.1464844 14.146484 C 4.8235537 14.459019 5.0447383 15.005768 5.4941406 15.005859 C 5.6296238 15.005859 5.7593086 14.950886 5.8535156 14.853516 L 9.3535156 11.353516 L 11 13 L 11 9 L 7 9 z "
     id="path4-6-2" />
</svg>
